templates/main/source/images/delivery-truck.svg

<?xml version="1.0" encoding="utf-8"?>
<svg width="18px" height="18px" viewBox="0 0 18 18" version="1.1" xmlns:xlink="http://www.w3.org/1999/xlink" xmlns="http://www.w3.org/2000/svg">
  <desc>Created with Lunacy</desc>
  <g id="delivery-truck">
    <path d="M0 0L18 0L18 18L0 18L0 0Z" id="Rectangle-4" fill="none" stroke="none" />
    <path d="M0.631588 8.72223L0.631588 0.797374C0.631588 0.357006 0.976559 0 1.40215 0L9.05656 0C9.48212 0 9.82709 0.357006 9.82709 0.797374L9.82709 8.72226C9.82709 8.86905 9.71212 8.98805 9.57024 8.98805L0.888441 8.98805C0.746559 8.98805 0.631588 8.86905 0.631588 8.72223ZM18 10.0491L18 10.8555C18 11.0023 17.885 11.1213 17.7431 11.1213L15.6636 11.1213C15.5149 10.0657 14.637 9.25171 13.5765 9.25171C12.5159 9.25171 11.6379 10.0657 11.4892 11.1213L7.30179 11.1213C7.22682 10.5892 6.96729 10.1191 6.59109 9.7833L10.5615 9.7833L10.5615 2.18084C10.5615 1.88726 10.7915 1.64926 11.0752 1.64926L13.5001 1.64926C14.1828 1.64926 14.821 2.00021 15.203 2.58575L16.7662 4.98165C16.9955 5.33308 17.1181 5.74743 17.1181 6.17148L17.1181 9.7833L17.7431 9.7833C17.885 9.7833 18 9.9023 18 10.0491ZM14.1443 3.20493L15.3944 5.043C15.5141 5.2191 15.3924 5.46176 15.1844 5.46176L11.9844 5.46176C11.8426 5.46176 11.7276 5.34279 11.7276 5.19597L11.7276 3.35789C11.7276 3.2111 11.8426 3.0921 11.9844 3.0921L13.9343 3.0921C14.0179 3.0921 14.0962 3.13419 14.1443 3.20493ZM0.256853 9.7833L3.83809 9.7833C3.46188 10.1191 3.20232 10.5891 3.12738 11.1213L0.256853 11.1213C0.115 11.1213 0 11.0023 0 10.8555L0 10.0491C0 9.9023 0.115 9.7833 0.256853 9.7833ZM5.21459 13.0909C6.09721 13.0909 6.81276 12.3505 6.81276 11.4371C6.81276 10.5237 6.09721 9.78333 5.21459 9.78333C4.33197 9.78333 3.61641 10.5237 3.61641 11.4371C3.61641 12.3505 4.33197 13.0909 5.21459 13.0909ZM15.1746 11.4371C15.1746 12.3505 14.4591 13.0909 13.5765 13.0909C12.6938 13.0909 11.9783 12.3505 11.9783 11.4371C11.9783 10.5237 12.6938 9.78333 13.5765 9.78333C14.4591 9.7833 15.1746 10.5237 15.1746 11.4371ZM6.01365 11.4371C6.01365 10.9804 5.65588 10.6102 5.21456 10.6102C4.77324 10.6102 4.41544 10.9804 4.41544 11.4371C4.41544 11.8938 4.77324 12.264 5.21456 12.264C5.65588 12.264 6.01365 11.8938 6.01365 11.4371ZM13.5765 10.6102C14.0178 10.6102 14.3756 10.9804 14.3756 11.4371C14.3756 11.8938 14.0178 12.264 13.5765 12.264C13.1351 12.264 12.7774 11.8938 12.7774 11.4371C12.7774 10.9804 13.1351 10.6102 13.5765 10.6102Z" transform="translate(0 2)" id="Shape" fill="#60BE34" fill-rule="evenodd" stroke="none" />
  </g>
</svg>

<svg width="18" height="18" viewBox="0 0 18 18" xmlns:xlink="http://www.w3.org/1999/xlink" xmlns="http://www.w3.org/2000/svg"><g id="delivery-truck" stroke="none"><path d="M0 0h18v18H0V0z" id="Rectangle-4" fill="none"/><path d="M.632 8.722V.797c0-.44.345-.797.77-.797h7.655c.425 0 .77.357.77.797v7.925a.261.261 0 01-.257.266H.888a.261.261 0 01-.256-.266zM18 10.05v.806a.261.261 0 01-.257.266h-2.08c-.148-1.055-1.026-1.87-2.087-1.87-1.06 0-1.938.815-2.087 1.87H7.302a2.203 2.203 0 00-.71-1.338h3.97V2.181c0-.294.23-.532.513-.532H13.5c.683 0 1.321.351 1.703.937l1.563 2.396c.23.351.352.765.352 1.19v3.611h.625c.142 0 .257.12.257.266zm-3.856-6.844l1.25 1.838c.12.176-.002.419-.21.419h-3.2a.261.261 0 01-.256-.266V3.358c0-.147.115-.266.256-.266h1.95c.084 0 .162.042.21.113zM.257 9.783h3.581a2.203 2.203 0 00-.71 1.338H.256A.261.261 0 010 10.855v-.806c0-.147.115-.266.257-.266zm4.958 3.308c.882 0 1.598-.74 1.598-1.654 0-.913-.716-1.654-1.598-1.654-.883 0-1.599.74-1.599 1.654 0 .914.716 1.654 1.599 1.654zm9.96-1.654c0 .914-.716 1.654-1.599 1.654-.882 0-1.598-.74-1.598-1.654 0-.913.716-1.654 1.598-1.654.883 0 1.599.74 1.599 1.654zm-9.161 0a.814.814 0 00-.8-.827c-.44 0-.799.37-.799.827 0 .457.358.827.8.827.44 0 .799-.37.799-.827zm7.562-.827c.442 0 .8.37.8.827a.814.814 0 01-.8.827c-.44 0-.799-.37-.799-.827 0-.457.358-.827.8-.827z" transform="translate(0 2)" id="Shape" fill="#60BE34" fill-rule="evenodd"/></g></svg>
